X:1
T:F major Daniel Read, 1807
T:Isaac Watts, 1709 (Psalm 103) 88. 88. (L. M.)
T:Gratitude
T:No copyright. Transcribed from The Columbian Harmonist, 1807.
%%score [ 1 2 3 4 ]
L:1/8
M:4/4
K:F
V:1 treble nm="Treble" snm="Tr."
V:2 treble nm="Counter" snm="C."
V:3 treble-8 nm="Tenor" snm="T."
V:4 bass nm="Bass" snm="B."
V:1
 A4 c2 c2 | c4 (c2 d2) | c4 B4 | A6 f2 | f4 d4 | e6 g2 | (f2 e2) d4 | c6 c2 | c4 c4 | A6 c2 | %10
 c4 c4 | c6 A2 | (B2 d2) (B2 G2) | c4 d4 | c4 (c2 B2) | A8 |] %16
V:2
 F4 A2 A2 | A4 G4 | F4 G4 | A6 A2 | F4 (G2 A2) | G6 G2 | A4 (G2 F2) |{F} E6 A2 | A4 G4 | c6 A2 | %10
w: 1.~Bless, O my|soul, the|li- ving|God; Call|home thy *|thoughts that|rove a- *|broad; Let|all the|powers with-|
 A4 G4 | A6 A2 | F4 B4 | A4 F4 | F4 E4 | F8 |] %16
w: in me|join In|work and|wor- ship|so di-|vine.|
V:3
 c4 A2 B2 | c4 (A2 B2) | c4 (d2 e2) | f6 c2 | d4 (de) f2 | c6 B2 | (A2 c2) (B2 A2) |{A} G6 A2 | %8
 c4 e4 | f6 A2 | c4 e4 | f6 c2 | d4 (g2 e2) | c4 B4 | (A2 F2) (G3 A) | F8 |] %16
V:4
 F,4 F,2 G,2 | (A,3 B,) (C2 B,2) | A,4 G,4 | F,6 F,2 | (B,2 A,2) (G,2 F,2) | E,6 E,2 | F,4 B,,4 | %7
 C,6 F,2 | F,4 C4 | F,6 F,2 | F,4 C,4 | F,6 F,2 | B,4 G,4 | A,4 B,4 | C4 C,4 | F,8 |] %16

